icon-svg/sr-radio.svg

<svg xmlns="http://www.w3.org/2000/svg" fill="#44739e" viewBox="0 0 24 24"><path d="M9.877 12.039H7.311a1.913 1.913 0 0 1 .947.475 2.156 2.156 0 0 1 .542 1.253 8.12 8.12 0 0 1-.039 2.31 1.736 1.736 0 0 1-1.431 1.517h2.213a3.54 3.54 0 0 0 1.239-.182 2.632 2.632 0 0 0 1.682-2.637 2.529 2.529 0 0 0-2.587-2.736M6.793 6.492c.144-.049.306-.086.306-.086H4.986a2.779 2.779 0 0 0-2.655 1.443 3.172 3.172 0 0 0 .055 2.924A2.448 2.448 0 0 0 4.7 12.034s2.083.008 2.318.006a1.64 1.64 0 0 1-.8-.315 2.334 2.334 0 0 1-.544-1.339A8.03 8.03 0 0 1 5.78 7.7a1.584 1.584 0 0 1 1.013-1.208m9.942 5.543h-4.416l4.862 5.517H22Zm-4.547-5.629h-4.79l4.79 5.486zm5.691 2.257a4.63 4.63 0 0 1-.251 2.714 1.633 1.633 0 0 1-.615.658c2.029 0 2.421-.027 3-.266a2.526 2.526 0 0 0 1.574-2.055 2.916 2.916 0 0 0-1.37-2.974 4.57 4.57 0 0 0-1.982-.334h-3.928a5.274 5.274 0 0 1 2.6.744 2.16 2.16 0 0 1 .972 1.513M2.164 17.594H7.01l-4.846-4.912Z"/></svg>

<?xml version="1.0" encoding="UTF-8"?>
<svg width="24px" fill="#44739e" height="24px" viewBox="0 0 24 24" version="1.1" xmlns="http://www.w3.org/2000/svg" xmlns:xlink="http://www.w3.org/1999/xlink">
            <path d="M 9.877,12.039 H 7.311 a 1.913,1.913 0 0 1 0.947,0.475 2.156,2.156 0 0 1 0.542,1.253 8.118,8.118 0 0 1 -0.039,2.31 1.736,1.736 0 0 1 -1.431,1.517 c 0,0 1.232,0 2.213,0 a 3.537,3.537 0 0 0 1.239,-0.182 2.632,2.632 0 0 0 1.682,-2.637 2.529,2.529 0 0 0 -2.587,-2.736 z M 6.793,6.492 C 6.937,6.443 7.099,6.406 7.099,6.406 H 4.986 A 2.779,2.779 0 0 0 2.331,7.849 3.172,3.172 0 0 0 2.386,10.773 2.448,2.448 0 0 0 4.7,12.034 c 0,0 2.083,0.008 2.318,0.006 A 1.641,1.641 0 0 1 6.218,11.725 2.334,2.334 0 0 1 5.674,10.386 8.026,8.026 0 0 1 5.78,7.7 1.584,1.584 0 0 1 6.793,6.492 Z m 9.942,5.543 h -4.416 l 4.862,5.517 H 22 Z M 12.188,6.406 h -4.79 l 4.79,5.486 z m 5.691,2.257 a 4.632,4.632 0 0 1 -0.251,2.714 1.633,1.633 0 0 1 -0.615,0.658 c 2.029,0 2.421,-0.027 3,-0.266 A 2.526,2.526 0 0 0 21.587,9.714 2.916,2.916 0 0 0 20.217,6.74 4.568,4.568 0 0 0 18.235,6.406 h -3.928 a 5.274,5.274 0 0 1 2.6,0.744 2.161,2.161 0 0 1 0.972,1.513 z M 2.164,17.594 H 7.01 L 2.164,12.682 Z"/>

</svg>
